X: 7648
T: Cold Frosty Morning
R: reel
M: 4/4
K: Aminor
|:EDEG A2A2|ABcd e2A2|B3A G4|GABc d3F|
EDEG A2A2|ABcd e2ed|cBAc BAG2|A4 A4:|
|:e2a2 a4|abag e2e2|ede^f g2g2|edcd e4|
A2A2 c4|d2d2 e4|cBAc BAG2|A4 A4:|

